X:1953
T:Blacksmith's Waltz
T:Per the Blacksmith or Smed-Jens Vals
M:3/4 
L:1/8
Z:<http://tunes.nhcountrydance.com>.
K:D
[| f2>g2 a2 | d2>e2 f2 | e2 d2 e2  | f3 e dc   | \
   B2 G2 B2 | A4 AB    |1 A2 E2 G2 | F2>E2 D2 :|2 A2 Ac ec | d4  |]
FG\
  [| A2 F2>A2 | A2 fe dc | B2 G2 B2 | B2 ed cB  |\
     A2 F2 A2  |1 A2 E2 G2 | F2>G2  FE | D4 :|2 A2 B2 c2 | d3 e  dc | d6 |]

